X: 1
T: Wagoner One Step
R: reel
S: Fiddle Hell Online 2022-3-26 handout for Fiddle Hell jam session
B: the Portland Collection 1 p.217
Z: 2022 John Chambers <jc:trillian.mit.edu>
M: C|
L: 1/8
K: C
"^A"[|] gf |\
"C"e[e3c3] [e2c2]A2 | cdef g2dc | "G"B[B3G3] [B2G2]D2 | GABc d2gf |
"C"e[e3c3] [e2c2]A2 | cdef g2a2- | "G"agag abag | "C"ec3 c2 :|
"^B"|: G,2 |\
"C"CB,CD EGAB | c2c2 A2G2 | "G"[AG][B2G2][AG] [B3G3][AG] | [B2G2][B2G2] A2G2 |
"C"CB,CD EGAB | c2c2 A2G2 | "G"g2eg aege | "C"[e3c3]A [e2c2] :|
